icons/op-plugins-24.svg

<svg width="24" height="24" viewBox="0 0 24 24" fill="none" xmlns="http://www.w3.org/2000/svg">
<path d="M9.10988 7L5.63203 11.2143C4.36407 12.9286 5.05239 15.5714 7.26227 17.3929C9.47215 19.2143 12.3704 19.2143 13.6383 17.6071L17.1162 13.2857L9.10988 7ZM13.4934 4L14.6527 4.92857L12.0081 8.21429L10.8126 7.32143L13.4934 4ZM17.8045 7.28571L19 8.21429L16.3554 11.5357L15.1599 10.6071L17.8045 7.28571ZM5.05239 19.5714L5.63203 20L7.58832 17.5L7.26227 17.3929L7.00868 17.1429L5.05239 19.5714Z" fill="black"/>
</svg>

<svg xmlns="http://www.w3.org/2000/svg" width="24" height="24" viewBox="0 0 24 24"><path d="m9.11 7-3.478 4.214c-1.268 1.715-.58 4.357 1.63 6.179 2.21 1.821 5.108 1.821 6.376.214l3.478-4.321L9.11 7Zm4.383-3 1.16.929-2.645 3.285-1.195-.893L13.493 4Zm4.312 3.286L19 8.214l-2.645 3.322-1.195-.929 2.645-3.321ZM5.052 19.571l.58.429 1.956-2.5-.326-.107-.253-.25-1.957 2.428Z"/></svg>
